assets/images/benefit_2.svg

<svg width="58" height="58" viewBox="0 0 58 58" fill="none" xmlns="http://www.w3.org/2000/svg">
<path d="M32.8516 0C33.282 0.237891 33.5766 0.577734 33.4066 1.09883C33.248 1.63125 32.7949 1.69922 32.3191 1.69922C29.8609 1.69922 27.4141 1.66523 24.9559 1.71055C21.1383 1.77852 18.1137 4.91641 18.125 8.73398C18.125 8.82461 18.1363 8.91523 18.1363 8.89258C19.1672 9.41367 20.1414 9.90078 21.1156 10.3879C21.6141 10.6371 22.0898 10.943 22.6109 11.1129C25.6129 12.1324 27.1762 14.3074 27.618 17.366C27.7879 18.5328 27.7879 19.7109 28.207 20.8551C28.5582 21.8066 28.2863 22.7922 27.9012 23.6984C30.3367 25.5109 29.793 29.9969 28.2637 31.5828C27.5727 32.2965 26.7684 32.5457 25.8055 32.4664C25.6695 33.1348 25.5449 33.7805 25.409 34.4941C25.6582 34.4941 25.8848 34.4941 26.1113 34.4941C29.034 34.4941 31.968 34.4941 34.8906 34.4941C35.8875 34.4941 36.1027 34.6754 36.25 35.6723C36.4426 37.0203 36.3746 38.3457 35.6949 39.5805C36.8957 39.5125 38.1191 38.3344 38.4137 37.1223C38.527 36.6465 38.6063 36.1594 38.6289 35.6723C38.6855 34.732 38.9121 34.4828 39.8863 34.4828C42.9449 34.4828 46.0035 34.4715 49.0621 34.4828C51.2824 34.4941 53.1516 33.7238 54.6242 32.0359C55.7004 30.8012 56.3008 29.3398 56.3008 27.6973C56.3234 21.2969 56.3461 14.8965 56.3008 8.49609C56.2781 4.7125 53.1516 1.72187 49.3113 1.69922C45.1992 1.67656 41.1098 1.69922 37.009 1.69922C36.8617 1.69922 36.7031 1.69922 36.5559 1.69922C36.0688 1.72187 35.627 1.63125 35.4684 1.09883C35.3098 0.577734 35.593 0.237891 36.0234 0C40.7812 0 45.5391 0 50.2969 0C50.3762 0.0339844 50.4555 0.090625 50.5461 0.101953C54.2504 0.691016 57.0258 3.30781 57.8187 6.94414C57.8754 7.19336 57.9434 7.44258 58 7.70312C58 14.6133 58 21.5234 58 28.4336C57.7508 29.2945 57.6035 30.2121 57.2297 31.0164C55.5984 34.4602 52.823 36.1594 49.0281 36.182C46.3094 36.2047 43.5906 36.1934 40.8719 36.182C40.4301 36.182 40.2715 36.2953 40.2035 36.7598C39.8863 39.1613 38.2211 40.9059 35.7402 41.4043C34.9813 41.5629 34.2109 41.6195 33.4406 41.6762C32.7383 41.7215 32.3078 41.4156 32.1945 40.8719C32.0926 40.3734 32.3758 39.9203 32.9648 39.6371C34.3469 38.9801 34.9246 37.7227 34.5055 36.182C34.3016 36.182 34.0863 36.182 33.8598 36.182C30.9711 36.182 28.0824 36.1934 25.1937 36.1707C24.8199 36.1707 24.6273 36.2727 24.4461 36.6012C23.1887 38.8781 21.3648 40.532 18.952 41.5176C18.5441 41.6875 18.4422 41.8914 18.4535 42.3105C18.4875 43.3074 18.4648 43.3074 19.3937 43.6133C19.9488 43.7945 20.5266 43.9305 21.0477 44.1797C23.0188 45.1199 24.9785 46.0715 26.3605 47.8613C26.7117 48.3145 26.723 48.8016 26.3719 49.1301C25.998 49.4813 25.4996 49.4473 25.0805 48.9715C24.3555 48.1445 23.5738 47.3855 22.5883 46.8758C22.475 46.8191 22.3617 46.7738 22.1805 46.6945C22.1805 47.7367 22.1578 48.7109 22.1918 49.6852C22.2145 50.3535 22.0332 50.8973 21.4215 51.1918C20.6285 51.577 20.368 52.1887 20.5039 53.0156C20.6285 53.7633 20.2887 54.2617 19.6656 54.6582C18.9406 55.1227 18.2609 55.6664 17.468 56.2441C20.7531 56.2441 23.9363 56.2441 27.1535 56.2441C27.2441 54.9527 27.1422 53.6727 26.8023 52.4039C26.5645 51.5203 26.7004 51.0559 27.2668 50.8973C27.8105 50.7387 28.173 51.0898 28.4336 51.9734C28.932 53.6613 28.9207 55.4059 28.8527 57.1391C28.8414 57.4336 28.5016 57.7168 28.3203 58C19.2918 58 10.2746 58 1.24609 58C0.804297 57.7168 0.645703 57.3203 0.668359 56.7992C0.702344 56.0855 0.657031 55.3605 0.691016 54.6469C0.860937 51.7242 1.86914 49.1414 3.93086 47.0117C5.23359 45.675 6.91016 44.95 8.54141 44.1684C9.22109 43.8512 9.96875 43.6699 10.6711 43.432C10.7957 43.3867 10.9996 43.3414 11.0109 43.2734C11.0562 42.809 11.1016 42.3332 11.0562 41.8801C11.0449 41.7441 10.7504 41.6082 10.5578 41.5289C7.75977 40.3281 5.73203 38.3457 4.57656 35.525C4.18008 34.5621 3.97617 33.5199 3.68164 32.5004C1.99375 32.4324 1.05352 31.7867 0.475781 30.2348C0.283203 29.6797 0.158594 29.102 0 28.5469C0 28.0145 0 27.4934 0 26.9609C0.0339844 26.8023 0.0792969 26.6324 0.101953 26.4738C0.237891 25.5789 0.555078 24.752 1.23477 24.1289C1.50664 23.8797 1.55195 23.6758 1.45 23.3586C1.1668 22.5316 1.23477 21.6934 1.38203 20.8438C1.48398 20.3113 1.57461 19.7676 1.56328 19.2352C1.51797 17.7738 1.7332 16.3578 2.4582 15.0891C2.94531 14.2281 3.60234 13.4578 4.23672 12.6988C4.53125 12.3363 4.97305 12.3477 5.3582 12.6535C5.7207 12.948 5.75469 13.4012 5.44883 13.8203C5.32422 13.9902 5.17695 14.1262 5.04102 14.2848C3.68164 15.8027 3.13789 17.5813 3.29648 19.609C3.33047 20.0055 3.29648 20.4359 3.17188 20.8098C2.59414 22.509 3.20586 24.0723 4.88242 24.9445C5.16562 24.548 5.4375 24.1176 5.76602 23.7324C6.13984 23.2906 6.51367 22.8262 6.9668 22.475C8.46211 21.3309 10.2066 20.9457 12.0531 20.8551C13.2199 20.7984 14.398 20.7984 15.5422 20.6285C16.7543 20.4586 17.8078 19.9148 18.4648 18.8047C18.6801 18.4422 18.9633 18.1816 19.4277 18.2496C19.8922 18.3176 20.0734 18.6574 20.198 19.0539C20.5266 20.1074 21.1156 20.9797 21.9539 21.7047C22.7355 22.3844 23.234 23.268 23.5965 24.2422C23.959 25.2277 24.2422 25.273 25.0578 24.616C26.4285 23.5059 26.9496 22.1012 26.3945 20.7418C26.1227 20.0734 25.998 19.4277 26.032 18.7141C26.0434 18.3969 25.9867 18.0797 25.9527 17.7512C25.7035 15.0098 24.0496 13.1633 21.3535 12.5742C21.1043 12.5176 20.8891 12.359 20.6625 12.2344C19.8695 11.7812 19.1219 11.2035 18.2723 10.8863C16.5957 10.252 14.8059 10.2633 13.084 10.6258C11.4527 10.9656 9.8668 11.5207 8.2582 12.0078C7.66914 12.1777 7.19336 12.0305 7.02344 11.566C6.85352 11.1016 7.05742 10.6711 7.60117 10.4332C9.52695 9.61758 11.5207 9.02852 13.5938 8.83594C14.5227 8.74531 15.4629 8.73398 16.4031 8.68867C16.4145 8.56406 16.4258 8.45078 16.4258 8.3375C16.641 4.2707 19.4391 0.996875 23.4152 0.169922C23.6531 0.124609 23.8797 0.0566406 24.1176 0C27.0402 0 29.9402 0 32.8516 0ZM18.9293 20.8664C17.9211 21.75 16.6637 22.2484 15.293 22.3957C14.2508 22.509 13.1859 22.475 12.1324 22.543C9.87813 22.6676 7.83906 23.2 6.66094 25.409C6.46836 25.7715 6.04922 26.0094 5.76602 26.3379C5.61875 26.4965 5.44883 26.7117 5.44883 26.9043C5.42617 28.4336 5.41484 29.9629 5.4375 31.4922C5.50547 36.216 9.17578 40.1242 13.7297 40.6C18.2156 41.0758 22.6109 38.1531 23.7891 33.8145C24.4121 31.4922 23.993 29.1246 24.1516 26.7457C22.9395 26.5984 22.3957 25.7941 21.9766 24.7973C21.7387 24.2195 21.4102 23.6531 21.0137 23.1547C20.3793 22.373 19.6656 21.6594 18.9293 20.8664ZM2.43555 56.2668C5.64141 56.2668 8.82461 56.2668 12.1211 56.2668C11.532 55.8363 11.0336 55.4738 10.5352 55.1113C8.81328 53.8426 9.09648 54.2844 9.05117 52.2793C9.05117 52.0641 8.88125 51.8148 8.73398 51.6336C8.57539 51.4523 8.36016 51.3164 8.14492 51.1918C7.57852 50.8633 7.36328 50.3875 7.38594 49.7305C7.41992 48.7336 7.39727 47.748 7.39727 46.7285C4.33867 47.748 1.93711 52.3699 2.43555 56.2668ZM13.4238 55.1113C12.6082 51.6902 11.8379 48.4277 11.0449 45.1199C10.4672 45.3125 9.98008 45.4937 9.47031 45.641C9.16445 45.7316 9.0625 45.8902 9.07383 46.2074C9.09648 47.2496 9.09648 48.2805 9.07383 49.3227C9.0625 49.6625 9.15312 49.9117 9.45898 50.059C10.5578 50.5914 10.9543 51.475 10.7617 52.6531C10.7391 52.7664 10.7391 52.8797 10.7617 52.993C10.7844 53.0949 10.8184 53.2195 10.8977 53.2762C11.6906 53.8539 12.4949 54.443 13.4238 55.1113ZM16.1426 55.1113C16.9582 54.5223 17.6039 54.0238 18.2949 53.5594C18.6801 53.3102 18.8953 53.027 18.816 52.5512C18.6234 51.4297 19.0199 50.6027 20.0508 50.093C20.1301 50.0477 20.2207 50.0023 20.2773 49.923C20.368 49.7871 20.4813 49.6398 20.4813 49.4926C20.4926 48.3371 20.4926 47.193 20.4813 46.0375C20.4813 45.9242 20.3793 45.743 20.2773 45.6977C19.7223 45.4824 19.1445 45.3125 18.5328 45.1086C17.7285 48.4391 16.9582 51.6902 16.1426 55.1113ZM13.0047 46.0148C13.5938 48.473 14.1602 50.8633 14.7266 53.2535C14.7605 53.2535 14.7945 53.2422 14.8285 53.2422C15.3949 50.8406 15.9613 48.4391 16.5391 46.0148C15.3383 46.0148 14.2168 46.0148 13.0047 46.0148ZM27.0062 25.1031C26.6664 25.4203 26.4172 25.6242 26.202 25.8621C26.0547 26.0207 25.8508 26.202 25.8395 26.3832C25.8055 27.8105 25.8281 29.2379 25.8281 30.6652C26.5871 30.8465 27.0516 30.6313 27.3914 29.8723C27.9238 28.6941 28.0484 27.4707 27.6406 26.2359C27.516 25.8395 27.2441 25.4996 27.0062 25.1031ZM2.51484 25.3184C1.33672 26.1453 1.50664 29.5437 2.63945 30.4613C2.9 30.6652 3.31914 30.6879 3.73828 30.8125C3.73828 29.2719 3.74961 27.9238 3.72695 26.5645C3.72695 26.4059 3.61367 26.2133 3.50039 26.1C3.19453 25.8395 2.85469 25.5902 2.51484 25.3184ZM16.7316 44.293C16.7316 43.5793 16.7316 42.9109 16.7316 42.2992C15.4176 42.2992 14.1262 42.2992 12.8461 42.2992C12.8461 42.9562 12.8461 43.6246 12.8461 44.293C14.1488 44.293 15.4176 44.293 16.7316 44.293Z" fill="#202020"/>
<path d="M32.591 22.4637C31.039 21.4329 30.7219 20.6173 31.2429 18.9407C30.5972 18.5102 30.0648 17.9778 29.9062 17.1622C29.7476 16.3466 29.9402 15.6329 30.4047 15.0438C30.2121 14.5341 29.9629 14.0696 29.8836 13.5825C29.6683 12.1665 30.6539 10.8637 32.0812 10.7618C33.5312 10.6598 34.9812 10.7165 36.4312 10.6372C37.3262 10.5919 38.2211 10.4333 39.1726 10.3087C38.9461 9.40241 38.7422 8.60944 38.5496 7.80515C38.323 6.88757 38.2777 5.98132 38.6855 5.0864C39.1953 3.98757 41.0871 3.28522 42.1519 3.87429C42.4465 4.03288 42.6957 4.39538 42.843 4.71257C43.2621 5.64147 43.6359 6.58171 43.9871 7.5446C44.5762 9.13054 45.5617 10.388 46.8644 11.4641C47.8726 12.3024 48.8129 13.2426 49.7078 14.2055C50.3762 14.9305 50.6367 15.8708 50.6254 16.879C50.614 18.6008 50.6254 20.3114 50.6254 22.0333C50.614 24.4348 49.1074 25.9755 46.7058 25.9868C42.8543 26.0094 39.0027 25.9981 35.1512 25.9868C33.0781 25.9755 32.0133 24.5141 32.591 22.4637ZM41.0078 24.2876C42.9109 24.2876 44.8254 24.2989 46.7285 24.2876C48.1558 24.2762 48.9262 23.4946 48.9262 22.0673C48.9262 20.3454 48.9148 18.6348 48.9375 16.913C48.9375 16.2786 48.8129 15.6895 48.3824 15.2364C47.5781 14.3981 46.7625 13.5372 45.8676 12.8122C44.3269 11.5774 43.1601 10.0934 42.4691 8.24694C42.1859 7.48796 41.8801 6.7403 41.5629 5.99265C41.4496 5.72077 41.4496 5.34694 40.9512 5.43757C40.4867 5.52819 40.1469 5.7321 40.1355 6.21921C40.1242 6.68366 40.1808 7.15944 40.2828 7.6239C40.4414 8.36022 40.6566 9.08522 40.8379 9.82155C41.1097 10.8977 40.6793 11.668 39.5918 11.8946C38.5383 12.1098 37.4734 12.2798 36.4086 12.3477C35.1285 12.4383 33.8484 12.3817 32.557 12.4157C31.934 12.4383 31.5601 12.7895 31.5715 13.2766C31.5828 13.7864 31.934 14.0809 32.5797 14.1036C33.1687 14.1149 33.7465 14.0923 34.3355 14.1149C34.9586 14.1376 35.3211 14.4887 35.3097 14.9872C35.2984 15.4743 34.9472 15.7801 34.3469 15.8028C33.7012 15.8255 33.0668 15.8141 32.4211 15.8368C31.9113 15.8594 31.5828 16.188 31.5715 16.6411C31.5601 17.0942 31.8773 17.4341 32.3871 17.4794C32.6703 17.5133 32.9535 17.502 33.2367 17.502C33.7465 17.5133 34.2562 17.4794 34.766 17.5247C35.3211 17.57 35.6269 17.9098 35.5929 18.3969C35.559 18.918 35.2304 19.1673 34.732 19.1899C34.3355 19.2126 33.939 19.1786 33.5426 19.2239C33.0101 19.2805 32.7156 19.6204 32.7269 20.1188C32.7383 20.5833 33.0328 20.8551 33.5879 20.8891C33.9277 20.9118 34.2676 20.8891 34.6074 20.9231C35.0605 20.9571 35.3437 21.2176 35.423 21.6594C35.5023 22.0786 35.3211 22.3958 34.9586 22.5997C34.7773 22.7016 34.5394 22.7696 34.4375 22.9169C34.2902 23.1321 34.109 23.438 34.1656 23.6532C34.2336 23.8911 34.5168 24.1063 34.7547 24.2423C34.9133 24.3329 35.1625 24.2876 35.3664 24.2876C37.2355 24.2876 39.116 24.2876 41.0078 24.2876Z" fill="#202020"/>
<path d="M14.8741 36.907C12.8916 36.873 11.1924 36.2046 9.90102 34.6414C9.74243 34.4488 9.60649 34.2449 9.49321 34.0296C9.24399 33.5652 9.35727 33.0781 9.77641 32.8515C10.2295 32.6023 10.6487 32.7043 10.8979 33.1347C11.9741 34.9812 14.4096 35.525 16.3354 34.9812C17.2756 34.7207 18.0346 34.1882 18.5331 33.3273C18.8956 32.7156 19.3147 32.5683 19.7791 32.8289C20.2549 33.1007 20.3229 33.5879 19.9717 34.2109C19.0655 35.8761 17.0831 36.9183 14.8741 36.907Z" fill="#202020"/>
<path d="M10.4784 26.8931C11.1127 27.0517 11.7584 27.1763 12.3701 27.3915C12.9252 27.5841 13.1065 28.0372 12.9252 28.5017C12.744 28.9548 12.3475 29.1587 11.8151 28.9548C10.9541 28.6376 10.1045 28.5923 9.22093 28.8415C8.6432 29.0001 8.17874 28.7282 8.06546 28.2411C7.96351 27.788 8.24671 27.3575 8.79046 27.1989C9.02835 27.131 9.26624 27.0743 9.50413 27.0403C9.82132 26.995 10.1385 26.961 10.4557 26.9271C10.467 26.9384 10.4784 26.9157 10.4784 26.8931Z" fill="#202020"/>
<path d="M19.0655 26.9043C19.7226 27.0289 20.2663 27.0969 20.7874 27.2328C21.3312 27.3687 21.603 27.8219 21.4784 28.2863C21.3538 28.7395 20.9347 29.0227 20.4136 28.8754C19.4733 28.6148 18.5671 28.6715 17.6495 28.9887C17.1511 29.1699 16.7659 28.9434 16.6073 28.4902C16.4374 27.9918 16.6413 27.5953 17.0944 27.4367C17.7741 27.1988 18.4765 27.0629 19.0655 26.9043Z" fill="#202020"/>
</svg>

<svg width="58" height="58" fill="none" xmlns="http://www.w3.org/2000/svg"><path d="M32.852 0c.43.238.725.578.555 1.099-.159.532-.612.6-1.088.6-2.458 0-4.905-.034-7.363.012-3.818.068-6.842 3.205-6.831 7.023 0 .09.011.181.011.159 1.031.52 2.005 1.008 2.98 1.495.498.25.974.555 1.495.725 3.002 1.02 4.565 3.194 5.007 6.253.17 1.167.17 2.345.589 3.49.351.95.08 1.936-.306 2.842 2.436 1.813 1.892 6.299.363 7.885-.691.714-1.496.963-2.459.883-.136.669-.26 1.315-.396 2.028h9.482c.997 0 1.212.181 1.359 1.178.193 1.348.125 2.674-.555 3.909 1.2-.069 2.424-1.247 2.719-2.459.113-.475.192-.963.215-1.45.056-.94.283-1.19 1.257-1.19 3.059 0 6.117-.01 9.176 0 2.22.012 4.09-.758 5.562-2.446 1.076-1.235 1.677-2.696 1.677-4.339.022-6.4.045-12.8 0-19.2-.023-3.784-3.15-6.775-6.99-6.798-4.112-.022-8.201 0-12.302 0h-.453c-.487.023-.929-.068-1.088-.6-.158-.521.125-.861.555-1.099h14.274c.08.034.159.09.25.102 3.703.589 6.479 3.206 7.272 6.842.056.25.124.499.181.76v20.73c-.25.86-.397 1.778-.77 2.582-1.632 3.444-4.407 5.143-8.202 5.166-2.719.023-5.437.011-8.156 0-.442 0-.6.113-.669.578-.317 2.401-1.982 4.146-4.463 4.644-.759.159-1.53.215-2.3.272-.702.045-1.132-.26-1.245-.804-.102-.499.18-.952.77-1.235 1.382-.657 1.96-1.914 1.54-3.455h-.645c-2.889 0-5.778.011-8.666-.011-.374 0-.567.102-.748.43-1.257 2.277-3.081 3.931-5.494 4.917-.408.17-.51.373-.499.792.035.997.012.997.94 1.303.556.181 1.134.318 1.655.567 1.97.94 3.93 1.892 5.313 3.681.35.454.362.94.01 1.27-.373.35-.871.316-1.29-.16-.726-.826-1.507-1.585-2.493-2.095-.113-.057-.226-.102-.408-.181 0 1.042-.022 2.016.012 2.99.023.668-.159 1.212-.77 1.507-.794.385-1.054.997-.918 1.824.124.747-.215 1.246-.838 1.642-.725.465-1.405 1.008-2.198 1.586h9.686a11.588 11.588 0 0 0-.352-3.84c-.238-.884-.102-1.348.465-1.507.544-.158.906.193 1.167 1.076.498 1.688.487 3.433.419 5.166-.012.295-.351.578-.533.861H1.246c-.442-.283-.6-.68-.578-1.2.034-.714-.011-1.44.023-2.153.17-2.923 1.178-5.506 3.24-7.635 1.303-1.337 2.98-2.062 4.61-2.844.68-.317 1.428-.498 2.13-.736.125-.045.329-.09.34-.159.045-.464.09-.94.045-1.393-.011-.136-.306-.272-.498-.351-2.798-1.2-4.826-3.183-5.981-6.004-.397-.963-.6-2.005-.895-3.025-1.688-.068-2.628-.713-3.206-2.265C.283 29.68.159 29.102 0 28.547V26.96c.034-.159.08-.329.102-.487.136-.895.453-1.722 1.133-2.345.272-.25.317-.453.215-.77-.283-.827-.215-1.666-.068-2.515.102-.533.193-1.076.181-1.609-.045-1.461.17-2.877.895-4.146.487-.86 1.144-1.631 1.779-2.39.294-.363.736-.351 1.121-.046.363.295.397.748.09 1.167-.124.17-.271.306-.407.465-1.36 1.518-1.903 3.296-1.745 5.324.034.396 0 .827-.124 1.2-.578 1.7.034 3.263 1.71 4.136.284-.397.556-.827.884-1.213.374-.441.748-.906 1.2-1.257 1.496-1.144 3.24-1.53 5.087-1.62 1.167-.057 2.345-.057 3.49-.227 1.211-.17 2.265-.713 2.922-1.823.215-.363.498-.623.963-.555.464.068.645.407.77.804.329 1.053.918 1.926 1.756 2.65.781.68 1.28 1.564 1.642 2.538.363.986.646 1.031 1.462.374 1.37-1.11 1.892-2.515 1.337-3.874a4.635 4.635 0 0 1-.363-2.028c.011-.317-.045-.634-.08-.963-.249-2.741-1.902-4.588-4.599-5.177-.249-.056-.464-.215-.69-.34-.794-.453-1.541-1.03-2.39-1.348-1.677-.634-3.467-.623-5.189-.26-1.631.34-3.217.895-4.826 1.382-.589.17-1.065.023-1.235-.442-.17-.464.034-.895.578-1.133 1.926-.815 3.92-1.404 5.993-1.597.929-.09 1.869-.102 2.81-.147.01-.125.022-.238.022-.351C16.64 4.27 19.439.997 23.416.17c.237-.045.464-.113.702-.17h8.734ZM18.929 20.866c-1.008.884-2.265 1.382-3.636 1.53-1.042.113-2.107.079-3.16.147-2.255.125-4.294.657-5.472 2.866-.193.363-.612.6-.895.929-.147.159-.317.374-.317.566-.023 1.53-.034 3.059-.011 4.588.067 4.724 3.738 8.632 8.292 9.108 4.486.476 8.88-2.447 10.06-6.785.622-2.323.203-4.69.362-7.07-1.213-.147-1.756-.95-2.175-1.948a6.861 6.861 0 0 0-.963-1.642c-.635-.782-1.348-1.496-2.085-2.289Zm-16.493 35.4h9.685l-1.586-1.155c-1.722-1.268-1.439-.827-1.484-2.832 0-.215-.17-.464-.317-.645-.159-.182-.374-.318-.59-.442-.565-.329-.78-.804-.758-1.462.034-.996.011-1.982.011-3.002-3.058 1.02-5.46 5.642-4.961 9.539Zm10.988-1.155c-.816-3.42-1.586-6.683-2.38-9.991-.577.193-1.064.374-1.574.521-.306.09-.408.25-.396.566a71.422 71.422 0 0 1 0 3.116c-.011.34.08.589.385.736 1.099.532 1.495 1.416 1.303 2.594a.86.86 0 0 0 0 .34c.022.102.056.226.136.283.793.578 1.597 1.167 2.526 1.835Zm2.719 0c.815-.589 1.46-1.087 2.152-1.552.385-.249.6-.532.521-1.008-.193-1.121.204-1.948 1.235-2.458.08-.045.17-.09.226-.17.091-.136.204-.283.204-.43.012-1.156.012-2.3 0-3.456 0-.113-.102-.294-.204-.34-.555-.215-1.133-.385-1.744-.588-.805 3.33-1.575 6.581-2.39 10.002Zm-3.138-9.096c.589 2.458 1.155 4.848 1.722 7.239.034 0 .067-.012.101-.012.567-2.401 1.133-4.803 1.711-7.227h-3.534Zm14.001-20.912c-.34.317-.589.521-.804.76-.147.158-.351.339-.363.52-.034 1.428-.01 2.855-.01 4.282.758.181 1.223-.034 1.562-.793.533-1.178.657-2.401.25-3.636-.125-.396-.397-.736-.635-1.133Zm-24.491.215c-1.178.827-1.008 4.226.124 5.143.261.204.68.227 1.1.352 0-1.541.01-2.89-.012-4.248 0-.16-.113-.352-.227-.465-.305-.26-.645-.51-.985-.782Zm14.217 18.975v-1.994h-3.886v1.994h3.886Z" fill="#202020"/><path d="M32.591 22.464c-1.552-1.031-1.87-1.847-1.348-3.523-.646-.43-1.178-.963-1.337-1.779-.158-.815.034-1.53.499-2.118-.193-.51-.442-.974-.521-1.462-.216-1.416.77-2.718 2.197-2.82 1.45-.102 2.9-.046 4.35-.125.895-.045 1.79-.204 2.742-.328-.227-.907-.43-1.7-.623-2.504-.227-.917-.272-1.824.136-2.719.51-1.098 2.401-1.8 3.466-1.212.294.159.544.521.691.839a41.1 41.1 0 0 1 1.144 2.832c.59 1.586 1.575 2.843 2.877 3.92 1.009.837 1.949 1.778 2.844 2.74.668.726.929 1.666.917 2.674-.011 1.722 0 3.432 0 5.154-.011 2.402-1.518 3.942-3.92 3.954-3.85.022-7.702.011-11.554 0-2.073-.011-3.138-1.473-2.56-3.523Zm8.417 1.824c1.903 0 3.817.01 5.72 0 1.428-.012 2.198-.793 2.198-2.22 0-1.723-.011-3.433.011-5.155 0-.634-.124-1.223-.555-1.677-.804-.838-1.62-1.699-2.514-2.424-1.541-1.235-2.708-2.719-3.399-4.565a55.012 55.012 0 0 0-.906-2.254c-.113-.272-.113-.646-.612-.555-.464.09-.804.294-.816.781-.01.465.046.94.148 1.405.158.736.374 1.461.555 2.198.272 1.076-.159 1.846-1.246 2.073-1.054.215-2.119.385-3.183.453-1.28.09-2.56.034-3.852.068-.623.022-.997.373-.986.86.012.51.363.805 1.009.828.589.01 1.166-.012 1.756.01.623.024.985.375.974.873-.012.487-.363.793-.963.816-.646.022-1.28.011-1.926.034-.51.022-.838.351-.85.804-.01.453.306.793.816.838.283.034.566.023.85.023.51.011 1.02-.023 1.529.023.555.045.86.385.827.872-.034.521-.363.77-.861.793-.396.023-.793-.011-1.19.034-.532.056-.826.396-.815.895.011.464.306.736.86.77.34.023.68 0 1.02.034.453.034.737.295.816.736.08.42-.102.737-.464.94-.182.103-.42.17-.522.318-.147.215-.328.521-.271.736.068.238.35.453.589.59.158.09.407.045.611.045h5.642ZM14.874 36.907c-1.982-.034-3.682-.702-4.973-2.266a3.592 3.592 0 0 1-.408-.611c-.249-.465-.136-.952.283-1.178.454-.25.873-.148 1.122.283 1.076 1.846 3.512 2.39 5.437 1.846.94-.26 1.7-.793 2.198-1.654.363-.611.782-.759 1.246-.498.476.272.544.759.193 1.382-.907 1.665-2.889 2.707-5.098 2.696ZM10.478 26.893c.635.159 1.28.283 1.892.498.555.193.737.646.555 1.11-.181.454-.578.658-1.11.454-.86-.317-1.71-.363-2.594-.113-.578.158-1.042-.114-1.156-.6-.101-.454.182-.884.725-1.043a5.39 5.39 0 0 1 .714-.159c.317-.045.635-.079.952-.113.011.011.022-.011.022-.034ZM19.066 26.904c.657.125 1.2.193 1.721.329.544.136.816.589.691 1.053-.124.453-.543.737-1.064.59-.94-.261-1.847-.204-2.765.113-.498.18-.883-.046-1.042-.499-.17-.498.034-.895.487-1.053.68-.238 1.383-.374 1.971-.533Z" fill="#202020"/></svg>
